!!!OTL: Trinklied.
!!!OTL-incipit: HEREIN ZUM WIRTSHAUS EIN
!!!ARE: Europa, Mitteleuropa, Deutschland, Niederrhein
!!!SCT: Z1330
!!!TXL: @@DE
!!!YEM: Copyright 1995, estate of Helmut Schaffrath.
**kern	**text
*ICvox	*
*M4/4	*
*met(c)	*
*k[b-e-a-]	*
*E-:	*
!LO:TX:a:t=Niederrhein.	!
{4b-/	Her-
=1	=1
4.b-/	-ein,
8a-	ʒum
4.g	Wirthshaus
8a-	.
=2	=2
2b-/}	ein!
{2cc/	daß
=3	=3
(8cc/L	wir
8b-J)	.
4b-/	bei-
(8b-L	-ſam-
8a-J)	.
4a-	-men
=4	=4
4g	ſeyn!
4r	.
4r}	.
{4b-/	ſind
=5	=5
(8b-L	wir
8a-J)	.
4a-	ʒu
4.f	drei,
8f	ſind
=6	=6
(8gL	wir
8fJ)	.
(8gL	ʒu
8a-J)	.
4b-/}	vier
{4ee-/	Ge-
=7	=7
(8b-L	-ſel-
8a-J)	.
4a-	-len
4.f	hier
8f	bei
=8	=8
(8gL	Wein
8fJ)	.
(8gL	und
8a-J)	.
4b-/}	Bier,
{4ee-/	ſo
=9	=9
(>4.cc/	fröh-
8dd/)	.
4ee-/	-lich,
4cc/	ſo
=10	=10
(>4.b-/	fröh-
8a-)	.
4g}	-lich
{8gL	iſt
8b-J	.
=11	=11
8b-L	kein
8a-J	.
4a-	Ge-
8a-L	-ſang
8gJ	.
8a-L	wie
8b-J	.
=12	=12
2g	wir!
4r}	.
==	==
!!!AGN: Zech -, Schalks - Lied
!!!ONB: ESAC (Essen Associative Code) Database: ZUCCAL
!!!AMT: simple quadruple
!!!AIN: vox
!!!EED: Helmut Schaffrath
!!!EEV: 1.0
!!!RDF**kern: >= above
!!!GTL: VIII. Zech- und Schalks-Lieder.
!!!URL-scan: https://www.digitale-sammlungen.de/de/view/bsb11160573?page=607
!!!ENC: Anna Maria Matuszewska
!!!EEV: 2025/02/07
*-	*-
